X:1
T:The Old Grey Duck
M:6/8
L:1/8
K:G
 D| G2 GG z G| B2 BG z G| A2 AF-E D| G4 z G| G2 G G2 G| B2 BG z G|\
 A2 AF-E D| G4 z A| A2 A A2 A| A2-B-c-B A| B2 B B2 B| B2- c- d2- d-|\
 d2 z zd-c| B2 B G2 G| B2 BG z G| A2 AF-E F| G4 z||
